X:7800
T:untitled waltz #1
O:england
M:3/4
K: G
f g f |e d2 B2 A |G3 D D D |E2 G3 E |D3 E D C,
|B,4 G B |e2 d2 B2 |A5 B |A3 f g f
|e d2 B2 A |G3 D D D |E2 G2 c2 |e3 g f e
|d B2 G2 B |A2 E3 F |G4-G A |G2 B2 d2
|e4 e f |g2 f2 e2 |f2 B3 B |B4 B2
|e2 e2 f2 |g2 f2 g2 |a6 |a2 g3 f
|e d2 B2 A |G3 D D D |E2 G2 c2 |e3 g f e
|d B2 G2 B |A2 E3 F |G4-G A |G3


